src/assets/media/svg/sprite/avatar.svg

<svg width="24" height="24" viewBox="0 0 24 24"  xmlns="http://www.w3.org/2000/svg">
<path d="M17.25 9.75C17.25 13.4779 14.8988 16.5 12 16.5C9.09975 16.5 6.75 13.4779 6.75 9.75V6.15C6.75 2.25 9.51412 0.75 12 0.75C14.4844 0.75 17.25 2.25 17.25 6.15V9.75Z" />
<path d="M18.744 19.125C15.9322 18.5873 15.2291 17.7979 15.0532 17.1203C14.1423 17.7037 13.0831 18.0134 12.0013 18.0125C10.9196 18.0117 9.86083 17.7003 8.95085 17.1154C8.78172 17.8031 8.08947 18.6116 5.25597 19.125C4.20662 19.312 3.23504 19.8024 2.46129 20.5354C1.68754 21.2685 1.14553 22.2123 0.902222 23.25H23.0977C22.8479 22.2154 22.3038 21.2753 21.5312 20.5433C20.7586 19.8113 19.7905 19.3187 18.744 19.125Z" />
</svg>

<svg xmlns="http://www.w3.org/2000/svg" width="24" height="24"><path d="M17.25 9.75c0 3.728-2.351 6.75-5.25 6.75s-5.25-3.022-5.25-6.75v-3.6c0-3.9 2.764-5.4 5.25-5.4 2.484 0 5.25 1.5 5.25 5.4zm1.494 9.375c-2.812-.538-3.515-1.327-3.69-2.005a5.65 5.65 0 0 1-6.103-.005c-.17.688-.862 1.497-3.695 2.01A5.46 5.46 0 0 0 .902 23.25h22.196a5.51 5.51 0 0 0-4.354-4.125"/></svg>
